!!!!SEGMENT: pl-kk--kk-i-382--010-001_anonim--nro-3-alleluia-ave-maria.krn
!!!cenid: 18xx:1469
!!!COM: Anonim
!!!COM-rismID: pe30004985
!!!CDT:
!!!CNT:
!!!OPR: Nro 3
!!!OTL: Alleluia Ave Maria
!!!OMV: 004
!!!PDT:
!!!AGN: Sacred
!!!SMS-siglum: PL-Kk
!!!SMS-shelfmark: Kk.I.382
!!!SMS-shelfwork: 003-004 M
!!!SMS-variant:
!!!SMS-altvar:
!!!NIFC-rismSourceID: 1001139093
!!!NIFC-islandoraID: pl-kk:6162
!!!URL-pdf-islandora: https://repozytorium.nifc.pl/islandora/object/pl-kk%3A6162/datastream/PDF/view
!!!URL-scan: https://polish.musicsources.pl/pl/lokalizacje/galeria/rekopisy/5994 @EN{Scan on Polish Music Herritage in Open Access Website} @PL{Skany w portalu Dziedzictwo Muzyki Polskiej w otwartym dostępie}
!!!ONB-nifc: UWAGA: obsada: S (T 1), T 2, A (B 1), B 2; S (T 1): skan 00010; A (B 1): skan 0154; T 2: skan 0081; B 2: skan 0226
!!!AIN: 1 alto 1 bass 2 tenor
!!!key:
**kern	**text	**dynam	**kern	**text	**kern	**text	**kern	**text
*part4	*part4	*part4	*part3	*part3	*part2	*part2	*part1	*part1
*staff4	*staff4	*	*staff3	*staff3	*staff2	*staff2	*staff1	*staff1
*Ibass	*	*	*Itenor	*	*Ialto	*	*Itenor	*
*I"Basso II	*	*	*I"Tenore II	*	*I"Alto vel Basso I	*	*I"Soprano vel Tenore I.	*
*I'B 2	*	*	*I'T 2	*	*I'A (B 1)	*	*I'S (T 1)	*
*clefF4	*	*	*clefC4	*	*clefC3	*	*clefC1	*
*k[b-]	*	*	*k[b-]	*	*k[b-]	*	*k[b-]	*
*F:	*	*	*F:	*	*F:	*	*F:	*
*M4/4	*	*	*M4/4	*	*M4/4	*	*M4/4	*
*met(C.)	*	*	*met(C.)	*	*met(c|)	*	*met(C.)	*
=1	=1	=1	=1	=1	=1	=1	=1	=1
*2\right	*	*	*	*	*2\right	*	*	*
!	!	!	!	!	!	!	!LO:TX:a:t=P:problem=uwaga! w tt. 19-21 znajduje się błędny zapis, wyglądający jak przesunięcie głosów	!
!LO:TX:a:t=P:problem=w źródle "in F." zapisane przed pierwszym taktem, nad pięciolinią	!	!	!	!	!	!	!	!
!LO:TX:a:i:t=in F.	!	!	!	!	!	!	!LO:TX:t=P:all\right:problem	!
!LO:TX:a:i:t=Solo.	!	!	!	!	!	!	!LO:TX:b:t=6.	!
!LO:TX:a:t=P:problem=w źródle "Graduale." zapisane przed pierwszym taktem, na pięciolinii	!	!	!LO:TX:a:t=P:problem=w źródle "Graduale." zapisane przed pierwszym taktem, na pięciolinii	!	!LO:TX:a:t=P:problem=w źródle "Graduale." zapisane przed pierwszym taktem, na pięciolinii	!	!LO:TX:a:t=P:problem=w źródle "Graduale." zapisane przed pierwszym taktem, na pięciolinii	!
!LO:TX:i:a:t=Graduale.	!	!	!LO:TX:i:a:t=Graduale.	!	!LO:TX:i:a:t=Graduale.	!	!LO:TX:i:a:t=Graduale.	!
4r	.	.	1r	.	4r	.	00r	.
!	!	!	!LO:TX:a:t=1.	!	!	!	!	!
2F\	al-	.	.	.	2f\	al-	.	.
4F\	-le-	.	.	.	4f\	-le-	.	.
=2	=2	=2	=2	=2	=2	=2	=2	=2
*	*	*	*2\right	*	*	*	*	*
2En\	-lu-	.	4r	.	2en\	-lu-	.	.
.	.	.	2c\	al-	.	.	.	.
2C/	-ia	.	.	.	2c\	-ia	.	.
.	.	.	4c\	-le-	.	.	.	.
=3	=3	=3	=3	=3	=3	=3	=3	=3
!LO:SIC:v:l:s=al-	!	!	!	!	!	!	!	!
1D	a-	.	2Bn\	-lu-	(>1d	al-	.	.
.	.	.	2G/	-ia	.	.	.	.
=4	=4	=4	=4	=4	=4	=4	=4	=4
2C/	.	.	(>1A	al-	2c\)	.	.	.
2F\	.	.	.	.	[>2f\	.	.	.
=5	=5	=5	=5	=5	=5	=5	=5	=5
2F\	le-	.	2G/)	.	2f\]	.	0r	.
2E\	-lu-	.	2c\	-le-	2e\	-le-	.	.
=6	=6	=6	=6	=6	=6	=6	=6	=6
4F\	-ia	.	(>2c\	-lu-	1d	-lu-	.	.
!LO:TX:a:t=P:problem=w źródle "f." zapisane na pięciolinii	!	!	!	!	!	!	!	!
!	!	!LO:DY:rj	!	!	!	!	!	!
!	!	!LO:DY:b:t=f.	!	!	!	!	!	!
2G\	al-	f	.	.	.	.	.	.
.	.	.	2Bn\)	.	.	.	.	.
4G\	-le-	.	.	.	.	.	.	.
=7	=7	=7	=7	=7	=7	=7	=7	=7
*	*	*	*	*	*	*	*2\right	*
2E\	-lu-	.	4c\	-ia	1g	-ia	4r	.
.	.	.	2e\	al-	.	.	2cc\	al-
2E\	-ia	.	.	.	.	.	.	.
.	.	.	4e\	-le-	.	.	4cc\	-le-
=8	=8	=8	=8	=8	=8	=8	=8	=8
4r	.	.	2c\	-lu-	4r	.	2a\	-lu-
2F\	al-	.	.	.	2a\	al-	.	.
.	.	.	2c\	-ia	.	.	2a\	-ja
4F\	-le-	.	.	.	4a\	-le-	.	.
!LO:LB:g=original	!	!	!LO:LB:g=original	!	!	!	!	!
=9	=9	=9	=9	=9	=9	=9	=9	=9
2D\	-lu-	.	4r	.	2f\	-lu-	4r	.
.	.	.	2d\	al-	.	.	2bn\	al-
2D\	-ia	.	.	.	2f\	-ia	.	.
.	.	.	4d\	-le-	.	.	4b\	-le-
!	!	!	!	!	!LO:LB:g=original	!	!	!
=10	=10	=10	=10	=10	=10	=10	=10	=10
2E\	al-	.	4Bn\	-lu-	(>2e\	al-	4g#X\	-lu-
.	.	.	4B\	-ia	.	.	4g#\	-ja
2D\	-le-	.	4f\	al-	2a\)	.	4cc\	al-
.	.	.	4f\	-le-	.	.	4cc\	-le-
=11	=11	=11	=11	=11	=11	=11	=11	=11
1E	-lu-	.	1e	-lu-	2a\	-le-	1bn	-lu-
.	.	.	.	.	2g#X\	-lu-	.	.
!	!	!	!	!	!	!	!LO:LB:g=original	!
=12	=12	=12	=12	=12	=12	=12	=12	=12
4AA/	-ia	.	1e	-ia	2.a\	-ia	4a\	-ja
2A\	al-	.	.	.	.	.	2cc\	al-
4A\	-le-	.	.	.	4e\	al-	4cc\	-le-
=13	=13	=13	=13	=13	=13	=13	=13	=13
2F\	-lu-	.	4r	.	2f\	-le-	2a\	-lu-
.	.	.	2d\	al-	.	.	.	.
2F\	-ia	.	.	.	2f\	-lu-	2a\	-ja
.	.	.	4d\	-le-	.	.	.	.
=14	=14	=14	=14	=14	=14	=14	=14	=14
4r	.	.	2Bn\	-lu-	2.d\	-ia	4r	.
!	!	!	!	!	!	!	!LO:SIC:v:s=2bn	!
2G\	al-	.	.	.	.	.	2b-\	al-
.	.	.	2B\	-ia	.	.	.	.
!	!	!	!	!	!	!	!LO:SIC:v:s=4bn	!
4G\	-le-	.	.	.	4d\	al-	4b-\	-le-
=15	=15	=15	=15	=15	=15	=15	=15	=15
2E\	-lu-	.	4r	.	2e\	-le-	2g\	-lu-
.	.	.	2c\	al-	.	.	.	.
2E\	-ia	.	.	.	2e\	-lu-	2g\	-ja
.	.	.	4c\	-le-	.	.	.	.
=16	=16	=16	=16	=16	=16	=16	=16	=16
(>1F	al-	.	2c\	-lu-	2c\	-ia	2a\	al-
.	.	.	4c\	-ia	[>2f\	al-	2a\	-le-
.	.	.	4A\	al-	.	.	.	.
=17	=17	=17	=17	=17	=17	=17	=17	=17
4.G\	.	.	2.G/	-le-	2f\]	.	4bn\	-lu-
.	.	.	.	.	.	.	4g\	-ja
8F\)	.	.	.	.	.	.	.	.
(>4E\	-le-	.	.	.	2e\	-le-	[>2cc\	al-
4C\)	.	.	4G/	-lu-	.	.	.	.
!LO:LB:g=original	!	!	!LO:LB:g=original	!	!	!	!	!
=18	=18	=18	=18	=18	=18	=18	=18	=18
(>2G\	-lu-	.	2G/	-ia,	1d	-lu-	4cc\]	.
.	.	.	.	.	.	.	4dd\	-le-
2GG/)	.	.	[>2G/	a-	.	.	2bn\	-lu-
!	!	!	!	!	!	!	!LO:LB:g=original	!
=19	=19	=19	=19	=19	=19	=19	=19	=19
2C/	-ia	.	2G/]	.	2c\	-ia	2cc\	-ja
!	!	!LO:TX:a:t=P::problem=w źródle "p&colon;" zapisane na pięciolinii	!	!	!	!	!	!
!	!	!LO:DY:rj	!	!	!	!	!	!
!	!	!LO:DY:b:t=p&colon;	!	!	!	!	!	!
(>2C/	a-	p	[>2A/	-ve	[>2c\	a-	2r	.
!	!	!	!	!	!LO:LB:g=original	!	!	!
=20	=20	=20	=20	=20	=20	=20	=20	=20
!	!	!	!	!	!	!	!LO:TX:b:t=3.	!
2C/	.	.	2A/]	.	2c\]	.	0r	.
2D/	.	.	2G/	ma-	[>2d\	-ve	.	.
=21	=21	=21	=21	=21	=21	=21	=21	=21
2D/)	-ve	.	2C/	-ri-	2d\]	.	.	.
!LO:TX:a:t=P:problem=w źródle "f." zapisane na pięciolinii	!	!	!	!	!	!	!	!
!	!	!LO:DY:rj	!	!	!	!	!	!
!	!	!LO:DY:b:t=f.	!	!	!	!	!	!
[>2C/	a-	f	2G/	-a	2c\	ma-	.	.
=22	=22	=22	=22	=22	=22	=22	=22	=22
2C/]	.	.	2A\	gra-	2e\	-ri-	1r	.
[>2D/	-ve	.	4A\	-ti-	2f\	-a	.	.
.	.	.	4A\	-a	.	.	.	.
=23	=23	=23	=23	=23	=23	=23	=23	=23
2D/]	.	.	2G/	ple-	2.e\	gra-	2r	.
2C/	ma-	.	2G/	-na	.	.	[>2g\	a-
.	.	.	.	.	4e\	-ti-	.	.
=24	=24	=24	=24	=24	=24	=24	=24	=24
2E\	-ri-	.	(>1c	Do-	2c\	-a	2g\]	.
2F\	-a	.	.	.	[>2f\	ple-	[>2a\	-ve
=25	=25	=25	=25	=25	=25	=25	=25	=25
2D\	gra-	.	2.B-X\)	.	2f\]	.	2a\]	.
2E\	-ti-	.	.	.	[>2g\	.	2g\	ma-
.	.	.	4B-\	mi-	.	.	.	.
=26	=26	=26	=26	=26	=26	=26	=26	=26
1F	-a	.	1A	-nus	2g\]	.	2cc\	-ri-
.	.	.	.	.	[>2f\	.	2cc\	-a
=27	=27	=27	=27	=27	=27	=27	=27	=27
2G\	ple-	.	2d\	te-	2f\]	.	4bn\	gra-
.	.	.	.	.	.	.	4b\	-ti-
2C/	-na	.	2c\	.	2e\	-na	2g\	-a
!LO:LB:g=original	!	!	!LO:LB:g=original	!	!	!	!	!
=28	=28	=28	=28	=28	=28	=28	=28	=28
2F\	Do-	.	2c\	-cum	2f\	Do-	2a\	ple-
2E\	-mi-	.	4c\	be-	4g\	-mi-	2g\	-na,
.	.	.	4c\	-ne-	4g\	-nus	.	.
=29	=29	=29	=29	=29	=29	=29	=29	=29
(>2F\	-nus	.	2c\	-dic-	2a\	te-	1r	.
!	!	!	!	!	!	!	!LO:TX:b:t=1.	!
2C/)	.	.	2c\	-ta	(>2g\	.	.	.
!	!	!	!	!	!LO:LB:g=original	!	!LO:LB:g=original	!
=30	=30	=30	=30	=30	=30	=30	=30	=30
!	!	!	!	!	!LO:TX:t=P:problem=brak zakończenia łuku	!	!	!
(>2F\	te-	.	2c\	tu	2a\)	.	4f/	Do-
.	.	.	.	.	.	.	4f/	-mi-
2E\)	.	.	2c\	in	2g\	-cum	2cc\	-nus
=31	=31	=31	=31	=31	=31	=31	=31	=31
2F\	-cum	.	2c\	mu-	2r	.	2ff\	te-
2A\	be-	.	2c\	-li-	2c\	be-	2cc\	-cum
=32	=32	=32	=32	=32	=32	=32	=32	=32
2c\	-ne-	.	4c\	-e-	2e\	-ne-	2c/	be-
.	.	.	4c\	-ri-	.	.	.	.
(<2C/	-di-	.	2c\	-bus	2g\	-dic-	2e/	-ne-
=33	=33	=33	=33	=33	=33	=33	=33	=33
4C/	.	.	2c\	et	4g\	.	2.g\	-dic-
4D/)	.	.	.	.	4f\	.	.	.
2E\	-cta	.	4c\	be-	4e\	.	.	.
.	.	.	4c\	-ne-	4f\	.	4f/	-ta
=34	=34	=34	=34	=34	=34	=34	=34	=34
2C/	tu	.	2c\	-di-	2g\	-ta	2e/	tu
!	!	!	!LO:TX:a:t=P:problem=ta adnotacja zapisana za taktem 34, na pięciolinii	!	!	!	!	!
!	!	!	!LO:TX:b:i:t=V&colon; S&colon;	!	!	!	!	!
(>2F\	in	.	2c\	-ctus	2a\	tu	(<4f/	in
.	.	.	.	.	.	.	4g/)	.
!	!	!	!LO:PB:g=original	!	!	!	!	!
=35	=35	=35	=35	=35	=35	=35	=35	=35
4F\	.	.	1c	fru-	2r	.	(>4a\	mu-
4G\	.	.	.	.	.	.	4b-X\)	.
4A\	.	.	.	.	2c\	in	2cc\	-li-
4B-X\)	.	.	.	.	.	.	.	.
=36	=36	=36	=36	=36	=36	=36	=36	=36
2.c\	mu-	.	1c	-ctus	2e\	mu-	(>4cc\	-e-
.	.	.	.	.	.	.	4dd\	.
.	.	.	.	.	2g\	-li-	2ee\	.
4B-\	-li-	.	.	.	.	.	.	.
!	!	!	!	!	!	!	!LO:LB:g=original	!
=37	=37	=37	=37	=37	=37	=37	=37	=37
!	!	!	!	!	!	!	!LO:TX:t=P:problem=w źródle brak dokończenia łuku	!
(>4A\	-e-	.	2c\	ven-	(>2c\	-e-	2ff\)	.
4G\	.	.	.	.	.	.	.	.
2F\)	.	.	2c\	-tris	2f\	.	2a\	.
!LO:LB:g=original	!	!	!	!	!	!	!	!
=38	=38	=38	=38	=38	=38	=38	=38	=38
2G\	.	.	2Bn\	ven-	2d\	.	[>1g	.
2C/	.	.	2c\	-tris	2e\	.	.	.
=39	=39	=39	=39	=39	=39	=39	=39	=39
2G\	.	.	2c\	tu-	2.d\)	.	2.g\]	.
2GG/	-ri-	.	2Bn\	.	.	.	.	.
.	.	.	.	.	4d\	-ri-	4g\	-ri-
=40	=40	=40	=40	=40	=40	=40	=40	=40
2C/	-bus	.	2c\	-i	2c\	-bus	2g\	-bus
2F\	et	.	2r	.	2r	.	2a\	et
!	!	!	!	!	!LO:LB:g=original	!	!	!
=41	=41	=41	=41	=41	=41	=41	=41	=41
2.G\	be-	.	2d\	et	2d\	et	2.b-X\	be-
.	.	.	4B-X\	be-	[>2e\	be-	.	.
4E\	-ne-	.	4B-\	-ne-	.	.	4g\	-ne-
=42	=42	=42	=42	=42	=42	=42	=42	=42
2.A\	-di-	.	2c\	-di-	4e\]	.	2.cc\	-di-
.	.	.	.	.	4c\	-ne-	.	.
.	.	.	2A\	-ctus	[>2f\	-dic-	.	.
4F\	-ctus	.	.	.	.	.	4a\	-ctus
=43	=43	=43	=43	=43	=43	=43	=43	=43
!	!	!	!LO:TX:t=P:problem=w źródle brak rozpoczęcia łuku	!	!	!	!	!
2.B-\	fru-	.	(>1B-X	fru-	4f\]	.	2.dd\	fru-
.	.	.	.	.	4d\	-tus	.	.
.	.	.	.	.	[>2g\	fruc-	.	.
4G\	-ctus	.	.	.	.	.	4dd\	-ctus
!	!	!	!LO:LB:g=original	!	!	!	!	!
=44	=44	=44	=44	=44	=44	=44	=44	=44
2A\	ven-	.	2A\)	.	2g\]	.	2.cc#X\	ven-
2D\	-tris	.	2d\	-ctus	2f\	-tus	.	.
.	.	.	.	.	.	.	4dd\	-tris
!	!	!	!	!	!	!	!LO:LB:g=original	!
=45	=45	=45	=45	=45	=45	=45	=45	=45
2G\	tu-	.	4d\	ven-	2g\	ven-	(>4bn\	ven-
.	.	.	4A\	-tris	.	.	4cc#X\)	.
2D\	.	.	2A\	tu-	2f\	-tris	2dd\	-tris
=46	=46	=46	=46	=46	=46	=46	=46	=46
1A	.	.	2A\	-i	1e	tu-	(>2dd\	tu-
.	.	.	4A\	be-	.	.	2cc#X\)	.
.	.	.	4A\	-ne-	.	.	.	.
=47	=47	=47	=47	=47	=47	=47	=47	=47
2D\	-i	.	2A\	-di-	2d\	-i	4dd\	-i
.	.	.	.	.	.	.	4a\	fru-
4D\	be-	.	2d\	-ctus	4d\	be-	[>2b-X\	-ctus
4D\	-ne-	.	.	.	4f\	-ne-	.	.
=48	=48	=48	=48	=48	=48	=48	=48	=48
2.E\	-di-	.	4r	.	2.g\	-dic-	4b-\]	.
.	.	.	4c\	fru-	.	.	4g\	ven-
.	.	.	2G/	-ctus	.	.	[>2cc\	.
4C/	-ctus	.	.	.	4e\	-tus	.	.
!LO:LB:g=original	!	!	!	!	!	!	!	!
=49	=49	=49	=49	=49	=49	=49	=49	=49
2.F\	fru-	.	4r	.	2.a\	fru-	4cc\]	.
.	.	.	4c\	fru-	.	.	4a\	.
.	.	.	2d\	-ctus	.	.	2dd\	.
4D\	-ctus	.	.	.	4b-\	-ctus	.	.
!	!	!	!	!	!LO:LB:g=original	!	!	!
=50	=50	=50	=50	=50	=50	=50	=50	=50
2C/	ven-	.	2e\	ven-	4g\	ven-	4cc\	.
.	.	.	.	.	4g\	-tris	4b-X\	.
2F\	-tris	.	2c\	-tris	[>2f\	tu-	2a\	-tris
=51	=51	=51	=51	=51	=51	=51	=51	=51
1C	tu-	.	1c	tu-	2f\]	.	1g	tu-
.	.	.	.	.	2e\	.	.	.
!	!	!	!LO:LB:g=original	!	!	!	!	!
=52	=52	=52	=52	=52	=52	=52	=52	=52
2F\	-i	.	2c\	-i	2f\	-i	2f/	-i
2F\	al-	.	2c\	al-	2f\	al-	2cc\	al-
=53	=53	=53	=53	=53	=53	=53	=53	=53
2En\	-le-	.	2e\	-le-	2g\	-le-	2cc\	-le-
2E\	-lu-	.	2e\	-lu-	2g\	-lu-	2cc\	-lu-
!	!	!	!	!	!	!	!LO:LB:g=original	!
=54	=54	=54	=54	=54	=54	=54	=54	=54
2D\	-ia	.	2f\	-ia	2a\	-ia	2dd\	-ja
2BB-X/	al-	.	4f\	al-	(>2b-\	al-	4dd\	al-
.	.	.	4f\	-le-	.	.	4dd\	-le-
=55	=55	=55	=55	=55	=55	=55	=55	=55
2C/	-le-	.	[>1c	-lu-	2e\)	.	(>2g\	-lu-
2F\	.	.	.	.	(>2f\	-le-	2a\	.
=56	=56	=56	=56	=56	=56	=56	=56	=56
1C	-lu-	.	1c]	.	2f\	.	1g)	.
.	.	.	.	.	2e\)	lu-	.	.
=57	=57	=57	=57	=57	=57	=57	=57	=57
!LO:N:vis=0	!	!	!	!	!	!	!LO:N:vis=0	!
1F	-ia.	.	1c	-ia.	1f	-ia	1f	-ja.
==	==	==	==	==	==	==	==	==
*-	*-	*-	*-	*-	*-	*-	*-	*-
!!!system-decoration: [(s1,s2,s3,s4)]
!!!RDF**kern: > = above
!!!RDF**kern: < = below
!!!EED: Antoni Szymański
!!!EEV: 2021-02-02
!!!ENC: Krzysztof Stępień
!!!END: 2021-01-27
